webroot/img/new-desgin/why_besa/icon-10.svg

<svg width="104" height="105" viewBox="0 0 104 105" fill="none" xmlns="http://www.w3.org/2000/svg">
<g id="Frame">
<g id="Group">
<path id="Vector" d="M100.744 100.54H96.7811V53.9909H97.4714C99.4939 53.9909 101.139 52.3454 101.139 50.3229C101.139 48.3004 99.4939 46.6549 97.4714 46.6549H72.4425V37.6808C72.4426 36.8471 72.2633 36.0231 71.9168 35.2647C71.5703 34.5064 71.0648 33.8315 70.4344 33.2858L55.8084 20.6118C55.0538 19.9584 54.1629 19.547 53.2344 19.3478V11.7879H62.7965C64.2551 11.7879 65.4418 10.6012 65.4418 9.14257V4.47049C65.4418 3.01185 64.2551 1.8252 62.7965 1.8252H52.0004C51.6731 1.8252 51.3593 1.9552 51.1279 2.18662C50.8964 2.41804 50.7664 2.73191 50.7664 3.05918V19.3476C49.8375 19.5468 48.9462 19.9582 48.1916 20.612L33.5656 33.286C32.9352 33.8317 32.4296 34.5066 32.0832 35.2649C31.7367 36.0233 31.5574 36.8473 31.5575 37.681V46.6551H6.52885C4.50633 46.6551 2.86082 48.3006 2.86082 50.3231C2.86082 52.3456 4.50633 53.9911 6.52885 53.9911H7.21724V100.541H3.2559C2.57441 100.541 2.02191 101.093 2.02191 101.775C2.02191 102.456 2.57421 103.009 3.2559 103.009H100.744C101.425 103.009 101.978 102.456 101.978 101.775C101.978 101.093 101.426 100.54 100.744 100.54ZM53.2344 4.29296H62.7965C62.8938 4.29296 62.9738 4.37259 62.9738 4.47029V9.14237C62.9737 9.18936 62.955 9.23441 62.9218 9.26764C62.8885 9.30087 62.8435 9.31959 62.7965 9.3197H53.2344V4.29296ZM94.3132 100.54H72.4425V53.9909H94.3132V100.54ZM97.4712 49.1227C98.1325 49.1227 98.6714 49.6615 98.6714 50.3229C98.6714 50.9843 98.1325 51.5232 97.4712 51.5232L72.4423 51.5224V49.1228L97.4712 49.1227ZM5.32858 50.3229C5.32912 50.0047 5.45575 49.6998 5.68073 49.4748C5.9057 49.2498 6.21068 49.1232 6.52885 49.1227H31.5575V51.5222L6.52885 51.523C6.21069 51.5225 5.90567 51.396 5.68068 51.171C5.45568 50.9461 5.32907 50.6411 5.32858 50.3229ZM9.68501 53.9909H31.5575V100.54H9.68501V53.9909ZM50.6645 100.54H43.8663V79.5047C43.8663 77.6865 45.345 76.2067 47.1632 76.2067H50.6645V100.54ZM60.1339 100.54H53.1322V76.2067H56.837C58.6552 76.2067 60.1339 77.6865 60.1339 79.5047V100.54ZM56.837 73.7388H47.1632C43.9849 73.7388 41.3983 76.3251 41.3983 79.5045V100.54H34.0275C34.0271 87.4865 34.0257 54.4675 34.0257 37.6806C34.0257 36.7089 34.447 35.7873 35.1815 35.1501L49.8075 22.4771C51.0577 21.3945 52.9425 21.3916 54.1927 22.4771L68.8187 35.1501C69.1816 35.4644 69.4725 35.853 69.672 36.2896C69.8714 36.7262 69.9746 37.2006 69.9745 37.6806L69.9697 100.54H62.6017V79.5047C62.6017 76.3253 60.0153 73.7388 56.837 73.7388Z" fill="url(#paint0_linear_31_339)"/>
<path id="Vector_2" d="M51.8982 49.1248C56.4976 49.1248 60.239 45.3834 60.239 40.7851C60.239 36.1857 56.4976 32.4443 51.8982 32.4443C47.2989 32.4443 43.5575 36.1857 43.5575 40.7851C43.5577 45.3834 47.2989 49.1248 51.8982 49.1248ZM51.8982 34.9121C55.1365 34.9121 57.771 37.5468 57.771 40.7849C57.771 44.0229 55.1363 46.6566 51.8982 46.6566C48.66 46.6566 46.0255 44.0229 46.0255 40.7849C46.0255 37.5468 48.6602 34.9121 51.8982 34.9121Z" fill="url(#paint1_linear_31_339)"/>
<path id="Vector_3" d="M51.4499 42.8509H53.9853C54.3126 42.8509 54.6265 42.7209 54.8579 42.4895C55.0893 42.2581 55.2193 41.9442 55.2193 41.617C55.2193 41.2897 55.0893 40.9758 54.8579 40.7444C54.6265 40.513 54.3126 40.383 53.9853 40.383H52.6839V37.8043C52.6839 37.1228 52.1316 36.5703 51.4499 36.5703C50.7682 36.5703 50.216 37.1226 50.216 37.8043V41.617C50.216 41.9442 50.346 42.2581 50.5774 42.4895C50.8088 42.7209 51.1227 42.8509 51.4499 42.8509ZM41.6451 58.0102H62.3551C62.6824 58.0102 62.9963 57.8802 63.2277 57.6487C63.4591 57.4173 63.5891 57.1034 63.5891 56.7762C63.5891 56.4489 63.4591 56.135 63.2277 55.9036C62.9963 55.6722 62.6824 55.5422 62.3551 55.5422H41.6451C41.3178 55.5422 41.004 55.6722 40.7725 55.9036C40.5411 56.135 40.4111 56.4489 40.4111 56.7762C40.4111 57.1034 40.5411 57.4173 40.7725 57.6487C41.004 57.8802 41.3178 58.0102 41.6451 58.0102ZM63.5889 65.4244C63.5889 65.0971 63.4589 64.7833 63.2275 64.5519C62.996 64.3204 62.6822 64.1904 62.3549 64.1904H41.6451C41.483 64.1904 41.3226 64.2224 41.1729 64.2844C41.0232 64.3464 40.8871 64.4373 40.7725 64.5519C40.6579 64.6665 40.567 64.8025 40.505 64.9522C40.443 65.1019 40.4111 65.2624 40.4111 65.4244C40.4111 65.5865 40.443 65.7469 40.505 65.8967C40.567 66.0464 40.6579 66.1824 40.7725 66.297C40.8871 66.4116 41.0232 66.5025 41.1729 66.5645C41.3226 66.6265 41.483 66.6584 41.6451 66.6584H62.3551C62.5171 66.6584 62.6776 66.6265 62.8273 66.5645C62.977 66.5025 63.113 66.4116 63.2276 66.297C63.3422 66.1824 63.433 66.0463 63.495 65.8966C63.557 65.7469 63.5889 65.5865 63.5889 65.4244ZM22.8168 62.5719H18.4277C16.5325 62.5719 14.991 64.1143 14.991 66.0096V70.3977C14.991 72.2931 16.5325 73.8354 18.4277 73.8354H22.8168C24.712 73.8354 26.2535 72.2931 26.2535 70.3977V66.0096C26.2535 64.1143 24.712 62.5719 22.8168 62.5719ZM23.7857 70.3977C23.7856 70.6547 23.6835 70.9012 23.5019 71.083C23.3202 71.2648 23.0738 71.3671 22.8168 71.3675H18.4277C18.1707 71.3671 17.9244 71.2648 17.7427 71.083C17.5611 70.9012 17.459 70.6547 17.4588 70.3977V66.0096C17.4589 65.7526 17.561 65.5062 17.7426 65.3243C17.9243 65.1425 18.1707 65.0402 18.4277 65.0399H22.8168C23.3508 65.0399 23.7857 65.4746 23.7857 66.0096V70.3977ZM22.8168 80.6964H18.4277C16.5325 80.6964 14.991 82.2379 14.991 84.133V88.5222C14.991 90.4173 16.5325 91.9599 18.4277 91.9599H22.8168C24.712 91.9599 26.2535 90.4175 26.2535 88.5222V84.133C26.2535 82.2377 24.712 80.6964 22.8168 80.6964ZM23.7857 88.5222C23.7856 88.7792 23.6835 89.0257 23.5019 89.2075C23.3202 89.3893 23.0738 89.4916 22.8168 89.4919H18.4277C18.1707 89.4915 17.9244 89.3892 17.7427 89.2074C17.5611 89.0256 17.459 88.7792 17.4588 88.5222V84.133C17.4588 83.599 17.8935 83.1641 18.4277 83.1641H22.8168C23.3508 83.1641 23.7857 83.5988 23.7857 84.133V88.5222ZM81.1832 73.8354H85.5723C87.4677 73.8354 89.009 72.2931 89.009 70.3977V66.0096C89.009 64.1143 87.4674 62.5719 85.5723 62.5719H81.1832C79.2878 62.5719 77.7465 64.1143 77.7465 66.0096V70.3977C77.7465 72.2931 79.288 73.8354 81.1832 73.8354ZM80.2143 66.0096C80.2144 65.7526 80.3165 65.5062 80.4981 65.3243C80.6798 65.1425 80.9262 65.0402 81.1832 65.0399H85.5723C86.1063 65.0399 86.5412 65.4746 86.5412 66.0096V70.3977C86.5411 70.6547 86.439 70.9012 86.2573 71.083C86.0757 71.2648 85.8293 71.3671 85.5723 71.3675H81.1832C80.9262 71.3671 80.6798 71.2648 80.4982 71.083C80.3165 70.9012 80.2144 70.6547 80.2143 70.3977V66.0096ZM81.1832 91.9599H85.5723C87.4677 91.9599 89.009 90.4175 89.009 88.5222V84.133C89.009 82.2377 87.4674 80.6964 85.5723 80.6964H81.1832C79.2878 80.6964 77.7465 82.2379 77.7465 84.133V88.5222C77.7465 90.4175 79.288 91.9599 81.1832 91.9599ZM80.2143 84.133C80.2143 83.599 80.6489 83.1641 81.1832 83.1641H85.5723C86.1063 83.1641 86.5412 83.5988 86.5412 84.133V88.5222C86.5411 88.7792 86.439 89.0257 86.2573 89.2075C86.0757 89.3893 85.8293 89.4916 85.5723 89.4919H81.1832C80.9262 89.4915 80.6798 89.3892 80.4982 89.2074C80.3165 89.0256 80.2144 88.7792 80.2143 88.5222V84.133Z" fill="url(#paint2_linear_31_339)"/>
</g>
</g>
<defs>
<linearGradient id="paint0_linear_31_339" x1="11.3841" y1="11.0679" x2="102.706" y2="124.441" gradientUnits="userSpaceOnUse">
<stop stop-color="#007BC4"/>
<stop offset="1" stop-color="#0B4C97"/>
</linearGradient>
<linearGradient id="paint1_linear_31_339" x1="45.12" y1="33.968" x2="60.1343" y2="52.8379" gradientUnits="userSpaceOnUse">
<stop stop-color="#007BC4"/>
<stop offset="1" stop-color="#0B4C97"/>
</linearGradient>
<linearGradient id="paint2_linear_31_339" x1="21.9237" y1="41.6299" x2="66.9076" y2="117.174" gradientUnits="userSpaceOnUse">
<stop stop-color="#007BC4"/>
<stop offset="1" stop-color="#0B4C97"/>
</linearGradient>
</defs>
</svg>

<svg width="104" height="105" fill="none" xmlns="http://www.w3.org/2000/svg"><path d="M100.744 100.54h-3.963V53.99h.69a3.672 3.672 0 0 0 3.668-3.667 3.672 3.672 0 0 0-3.668-3.668H72.442V37.68a5.812 5.812 0 0 0-2.008-4.395L55.808 20.612a5.75 5.75 0 0 0-2.574-1.264v-7.56h9.563a2.648 2.648 0 0 0 2.645-2.645V4.47a2.648 2.648 0 0 0-2.645-2.645H52a1.234 1.234 0 0 0-1.234 1.234v16.289c-.928.199-1.82.61-2.574 1.264L33.566 33.286a5.81 5.81 0 0 0-2.009 4.395v8.974H6.53a3.672 3.672 0 0 0-3.668 3.668 3.672 3.672 0 0 0 3.668 3.668h.688v46.55H3.256a1.234 1.234 0 1 0 0 2.468h97.488a1.235 1.235 0 0 0 0-2.469ZM53.234 4.293h9.563c.097 0 .177.08.177.177v4.672a.178.178 0 0 1-.177.178h-9.563V4.293Zm41.08 96.247H72.442V53.99h21.87v46.55Zm3.157-51.417c.661 0 1.2.538 1.2 1.2 0 .661-.539 1.2-1.2 1.2H72.442v-2.4h25.03Zm-92.142 1.2a1.202 1.202 0 0 1 1.2-1.2h25.029v2.4H6.527a1.202 1.202 0 0 1-1.2-1.2Zm4.356 3.668h21.872v46.549H9.685V53.99Zm40.98 46.549h-6.799V79.505a3.301 3.301 0 0 1 3.297-3.298h3.502v24.333Zm9.469 0h-7.002V76.207h3.705a3.301 3.301 0 0 1 3.297 3.298v21.035Zm-3.297-26.801h-9.674a5.772 5.772 0 0 0-5.765 5.765v21.036h-7.37l-.002-62.86c0-.971.421-1.893 1.155-2.53l14.627-12.673a3.363 3.363 0 0 1 4.385 0L68.819 35.15a3.348 3.348 0 0 1 1.156 2.53l-.005 62.86h-7.368V79.505a5.772 5.772 0 0 0-5.765-5.766Z" fill="url(#a)"/><path d="M51.898 49.125c4.6 0 8.341-3.742 8.341-8.34 0-4.6-3.741-8.34-8.34-8.34-4.6 0-8.342 3.74-8.342 8.34 0 4.598 3.742 8.34 8.341 8.34Zm0-14.213a5.88 5.88 0 0 1 5.873 5.873 5.879 5.879 0 0 1-5.873 5.872 5.879 5.879 0 0 1-5.873-5.872 5.88 5.88 0 0 1 5.873-5.873Z" fill="url(#b)"/><path d="M51.45 42.85h2.535a1.234 1.234 0 1 0 0-2.467h-1.301v-2.579a1.234 1.234 0 1 0-2.468 0v3.813a1.234 1.234 0 0 0 1.234 1.234Zm-9.805 15.16h20.71a1.234 1.234 0 1 0 0-2.468h-20.71a1.234 1.234 0 0 0 0 2.468Zm21.944 7.414a1.234 1.234 0 0 0-1.234-1.234h-20.71a1.234 1.234 0 0 0 0 2.468h20.71a1.234 1.234 0 0 0 1.234-1.234Zm-40.772-2.852h-4.39a3.441 3.441 0 0 0-3.436 3.438v4.388a3.441 3.441 0 0 0 3.437 3.437h4.389a3.441 3.441 0 0 0 3.436-3.437V66.01a3.441 3.441 0 0 0-3.436-3.438Zm.969 7.826a.97.97 0 0 1-.97.97h-4.388a.97.97 0 0 1-.97-.97V66.01a.97.97 0 0 1 .97-.97h4.389a.97.97 0 0 1 .969.97v4.388Zm-.97 10.298h-4.388a3.44 3.44 0 0 0-3.437 3.437v4.39a3.441 3.441 0 0 0 3.437 3.437h4.389a3.441 3.441 0 0 0 3.436-3.438v-4.389a3.44 3.44 0 0 0-3.436-3.437Zm.97 7.826a.97.97 0 0 1-.97.97h-4.388a.97.97 0 0 1-.97-.97v-4.389a.97.97 0 0 1 .97-.969h4.389a.97.97 0 0 1 .969.969v4.39Zm57.397-14.687h4.39a3.44 3.44 0 0 0 3.436-3.437V66.01a3.441 3.441 0 0 0-3.437-3.438h-4.389a3.441 3.441 0 0 0-3.437 3.438v4.388a3.441 3.441 0 0 0 3.437 3.437Zm-.969-7.825a.97.97 0 0 1 .97-.97h4.388a.97.97 0 0 1 .97.97v4.388a.97.97 0 0 1-.97.97h-4.389a.97.97 0 0 1-.969-.97V66.01Zm.97 25.95h4.388a3.441 3.441 0 0 0 3.437-3.438v-4.389a3.44 3.44 0 0 0-3.437-3.437h-4.389a3.44 3.44 0 0 0-3.437 3.437v4.39a3.441 3.441 0 0 0 3.437 3.437Zm-.97-7.827a.97.97 0 0 1 .97-.969h4.388a.97.97 0 0 1 .97.969v4.39a.97.97 0 0 1-.97.969h-4.389a.97.97 0 0 1-.969-.97v-4.389Z" fill="url(#c)"/><defs><linearGradient id="a" x1="11.384" y1="11.068" x2="102.706" y2="124.441" gradientUnits="userSpaceOnUse"><stop stop-color="#007BC4"/><stop offset="1" stop-color="#0B4C97"/></linearGradient><linearGradient id="b" x1="45.12" y1="33.968" x2="60.134" y2="52.838" gradientUnits="userSpaceOnUse"><stop stop-color="#007BC4"/><stop offset="1" stop-color="#0B4C97"/></linearGradient><linearGradient id="c" x1="21.924" y1="41.63" x2="66.908" y2="117.174" gradientUnits="userSpaceOnUse"><stop stop-color="#007BC4"/><stop offset="1" stop-color="#0B4C97"/></linearGradient></defs></svg>
